X: 4068
M: C
L: 1/8
K: D
|:\
g>f g<b a<f e<d |[1 B<B g>f (3efd (3cdB |[2 B<g f>e d3f ||
|:\
a>b a<f d>e f<d | g>ab>g | e2 (3(efg) |\
a>b a<f d>e f<d |[1 B<B g>f e3f :|[2 B<g f>e d3z |]


